web/themes/quartiers_solidaires/assets/icons/activities-big.svg

<?xml version="1.0" encoding="UTF-8"?>
<svg width="141px" height="141px" viewBox="0 0 141 141" version="1.1" xmlns="http://www.w3.org/2000/svg" xmlns:xlink="http://www.w3.org/1999/xlink">

      <g id="activities-big" fill-rule="nonzero" fill="currentColor">
          <path d="M103.531074,12.9825503 C103.531074,7.44614282 99.0429432,2.95774615 93.5062699,2.95774615 C87.9704498,2.95774615 83.4824517,7.44627569 83.4824517,12.9825503 C83.4824517,18.518825 87.9704498,23.0073545 93.5062699,23.0073545 C99.0429432,23.0073545 103.531074,18.5189579 103.531074,12.9825503 Z M106.489116,12.9825503 C106.489116,20.1526001 100.676664,25.9653965 93.5062699,25.9653965 C86.3366899,25.9653965 80.5244098,20.1524281 80.5244098,12.9825503 C80.5244098,5.81267263 86.3366899,-0.000295804196 93.5062699,-0.000295804196 C100.676664,-0.000295804196 106.489116,5.81250056 106.489116,12.9825503 Z" id="Stroke-1"></path>
          <path d="M57.5169566,12.9825503 C57.5169566,7.44614282 53.0288257,2.95774615 47.4921524,2.95774615 C41.9563323,2.95774615 37.4683343,7.44627569 37.4683343,12.9825503 C37.4683343,18.518825 41.9563323,23.0073545 47.4921524,23.0073545 C53.0288257,23.0073545 57.5169566,18.5189579 57.5169566,12.9825503 Z M60.4749986,12.9825503 C60.4749986,20.1526001 54.6625464,25.9653965 47.4921524,25.9653965 C40.3225725,25.9653965 34.5102923,20.1524281 34.5102923,12.9825503 C34.5102923,5.81267263 40.3225725,-0.000295804196 47.4921524,-0.000295804196 C54.6625464,-0.000295804196 60.4749986,5.81250056 60.4749986,12.9825503 Z" id="Stroke-3"></path>
          <path d="M7.23122937,48.972258 C3.23745158,48.972258 -0.000197202797,45.7346093 -0.000197202797,41.7408315 C-0.000197202797,37.747848 3.23764326,34.5103909 7.23122937,34.5103909 L133.769362,34.5103909 C137.762154,34.5103909 140.999803,37.7480397 140.999803,41.7408315 C140.999803,45.7344176 137.762346,48.972258 133.769362,48.972258 L117.993138,48.972258 L117.993138,133.769461 C117.993138,137.762636 114.755106,140.999901 110.762698,140.999901 C106.76881,140.999901 103.531271,137.763129 103.531271,133.769461 L103.531271,83.4827476 L94.9864741,83.4827476 L94.9864741,133.769461 C94.9864741,137.762828 91.7482504,140.999901 87.7550476,140.999901 C83.7612698,140.999901 80.524607,137.763239 80.524607,133.769461 L80.524607,48.972258 L60.4759846,48.972258 L60.4759846,133.769461 C60.4759846,137.762828 57.2377609,140.999901 53.244558,140.999901 C49.2507802,140.999901 46.0141175,137.763239 46.0141175,133.769461 L46.0141175,83.4827476 L37.4683343,83.4827476 L37.4683343,133.769461 C37.4683343,137.762937 34.2309868,140.999901 30.2378937,140.999901 C26.2441159,140.999901 23.0074531,137.763239 23.0074531,133.769461 L23.0074531,48.972258 L7.23122937,48.972258 Z M133.769362,37.4684329 L7.23122937,37.4684329 C4.87124632,37.4684329 2.95784476,39.3816079 2.95784476,41.7408315 C2.95784476,44.1009278 4.87113304,46.0142161 7.23122937,46.0142161 L24.4864741,46.0142161 C25.3033149,46.0142161 25.9654951,46.6763963 25.9654951,47.4932371 L25.9654951,133.769461 C25.9654951,136.129557 27.8777974,138.041859 30.2378937,138.041859 C32.5973838,138.041859 34.5102923,136.129177 34.5102923,133.769461 L34.5102923,82.0037266 C34.5102923,81.1868858 35.1724726,80.5247056 35.9893133,80.5247056 L47.4931385,80.5247056 C48.3099792,80.5247056 48.9721594,81.1868858 48.9721594,82.0037266 L48.9721594,133.769461 C48.9721594,136.129557 50.8844617,138.041859 53.244558,138.041859 C55.6043146,138.041859 57.5179427,136.128911 57.5179427,133.769461 L57.5179427,47.4932371 C57.5179427,46.6763963 58.1801229,46.0142161 58.9969636,46.0142161 L82.003628,46.0142161 C82.8204687,46.0142161 83.482649,46.6763963 83.482649,47.4932371 L83.482649,133.769461 C83.482649,136.129557 85.3949512,138.041859 87.7550476,138.041859 C90.1148041,138.041859 92.0284322,136.128911 92.0284322,133.769461 L92.0284322,82.0037266 C92.0284322,81.1868858 92.6906124,80.5247056 93.5074531,80.5247056 L105.010292,80.5247056 C105.827133,80.5247056 106.489313,81.1868858 106.489313,82.0037266 L106.489313,133.769461 C106.489313,136.129291 108.402335,138.041859 110.762698,138.041859 C113.121582,138.041859 115.035097,136.128798 115.035097,133.769461 L115.035097,47.4932371 C115.035097,46.6763963 115.697277,46.0142161 116.514117,46.0142161 L133.769362,46.0142161 C136.128586,46.0142161 138.041761,44.1008145 138.041761,41.7408315 C138.041761,39.3817212 136.128473,37.4684329 133.769362,37.4684329 Z" id="Stroke-5"></path>
      </g>

</svg>

<svg viewBox="0 0 141 141" xmlns="http://www.w3.org/2000/svg">
  <g fill="currentColor">
    <path d="M103.531 12.983c0-5.537-4.488-10.025-10.025-10.025-5.536 0-10.024 4.488-10.024 10.025 0 5.536 4.488 10.024 10.024 10.024 5.537 0 10.025-4.488 10.025-10.024zm2.958 0c0 7.17-5.812 12.982-12.983 12.982-7.17 0-12.982-5.813-12.982-12.982C80.524 5.813 86.337 0 93.506 0c7.17 0 12.983 5.813 12.983 12.983zM57.517 12.983c0-5.537-4.488-10.025-10.025-10.025-5.536 0-10.024 4.488-10.024 10.025 0 5.536 4.488 10.024 10.024 10.024 5.537 0 10.025-4.488 10.025-10.024zm2.958 0c0 7.17-5.812 12.982-12.983 12.982-7.17 0-12.982-5.813-12.982-12.982C34.51 5.813 40.323 0 47.492 0c7.17 0 12.983 5.813 12.983 12.983zM7.231 48.972a7.231 7.231 0 0 1 0-14.462H133.77a7.231 7.231 0 0 1 0 14.462h-15.776v84.797a7.231 7.231 0 0 1-14.462 0V83.483h-8.545v50.286a7.231 7.231 0 0 1-14.461 0V48.972H60.476v84.797a7.231 7.231 0 0 1-14.462 0V83.483h-8.546v50.286a7.23 7.23 0 1 1-14.46 0V48.972H7.23zM133.77 37.468H7.231a4.273 4.273 0 1 0 0 8.546h17.255c.817 0 1.48.662 1.48 1.48v86.275a4.272 4.272 0 1 0 8.544 0V82.004c0-.817.662-1.48 1.48-1.48h11.503c.817 0 1.48.663 1.48 1.48v51.765a4.273 4.273 0 0 0 8.546 0l-.001-86.276c0-.817.662-1.479 1.479-1.479h23.007c.816 0 1.479.662 1.479 1.48v86.275a4.273 4.273 0 0 0 8.546 0V82.004c0-.817.662-1.48 1.478-1.48h11.503c.817 0 1.48.663 1.48 1.48v51.765a4.273 4.273 0 0 0 8.545 0V47.493c0-.817.662-1.479 1.48-1.479h17.254a4.273 4.273 0 0 0 0-8.546z"/>
  </g>
</svg>
